X: 142
T: Because he was a bonny Lad
R: reel
B: Robert Bremner "A Collection of Scots Reels or Country Dances" p.14 #2
S: http://imslp.org/wiki/A_Collection_of_Scots_Reels_or_Country_Dances_(Bremner,_Robert)
Z: 2013 John Chambers <jc:trillian.mit.edu>
M: C|
L: 1/8
K: Amix
% - - - - - - - - - - - - - - - - - - - - - - - - -
V: 1
e |\
(Tc>BA)a faec | dfec  B/B/B Be |\
(Tc>BA)a faec | dfec A/A/A A :|\
e |\
(Tc>BA)c defd | cAec B/B/B Be |
(Tc>BA)c def^g | (a/^g/f/e/) ac A/A/A Ae |\
cAeA fAeA | cAeA B/B/B B^g |\
afge fdec | dBec A/A/A A |]
% - - - - - - - - - - - - - - - - - - - - - - - - -
V: 2 clef=bass middle=d
z |\
a2a2 a2a2 | a2a2 b2b2 |\
a2a2 a2a2 | d2e2 A2A :|\
z |\
a2a2 a2a2 | a2a2
e2e2 |\
a2a2 a2a2 | e2e2 A2A2 |\
a2a2 a2a2 | a2a2 b2b2 | a2a2 a2a2 | d2e2 A2A |]
% - - - - - - - - - - - - - - - - - - - - - - - - -

%%sep 1 1 500
%%sep 1 1 500
